% GCode generated by RepRap Java Host Software
%
% Hardware Profile: bioprinter
% Date Created: 2011-09-23:10-07-04

% Select dimensioning in metric (mm) rather than imperial (inches).
G21

% Select using absolute positions, rather than relative positions.
G90

% Move to machine home position.
X0.0 Y0.0 Z0

G01 Z0 F200

% Starting new layer: 1/31
G00 X17.91 Y4.16 % 3D rapid move.
G01 X17.91 Y4.16 F200 % Horizontal rapid move.
G04 P10
G01 Y15.84 % Horizontal rapid move.
G04 P10
G01 X17.87 Y15.9 % Horizontal rapid move.
G04 P10
G01 X17.4 Y16.48 % Horizontal rapid move.
G04 P10
G01 X16.89 Y17.01 % Horizontal rapid move.
G04 P10
G01 X16.33 Y17.52 % Horizontal rapid move.
G04 P10
G01 X15.91 Y17.85 % Horizontal rapid move.
G04 P10
G01 Y2.15 % Horizontal rapid move.
G04 P10
G01 X15.75 Y2.02 % Horizontal rapid move.
G04 P10
G01 X15.13 Y1.61 % Horizontal rapid move.
G04 P10
G01 X14.48 Y1.25 % Horizontal rapid move.
G04 P10
G01 X13.91 Y0.99 % Horizontal rapid move.
G04 P10
G01 Y9.23 % Horizontal rapid move.
G04 P10
G01 Y19.01 % Horizontal rapid move.
G04 P10
G01 X13.8 Y19.06 % Horizontal rapid move.
G04 P10
G01 X13.11 Y19.33 % Horizontal rapid move.
G04 P10
G01 X12.39 Y19.53 % Horizontal rapid move.
G04 P10
G01 X11.91 Y19.64 % Horizontal rapid move.
G04 P10
G01 Y0.36 % Horizontal rapid move.
G04 P10
G01 X11.66 Y0.31 % Horizontal rapid move.
G04 P10
G01 X10.93 Y0.21 % Horizontal rapid move.
G04 P10
G01 X10.19 Y0.17 % Horizontal rapid move.
G04 P10
G01 X9.91 % Horizontal rapid move.
G04 P10
G01 Y19.83 % Horizontal rapid move.
G04 P10
G01 X9.44 Y19.82 % Horizontal rapid move.
G04 P10
G01 X8.7 Y19.74 % Horizontal rapid move.
G04 P10
G01 X7.97 Y19.62 % Horizontal rapid move.
G04 P10
G01 X7.91 Y19.61 % Horizontal rapid move.
G04 P10
G01 Y0.39 % Horizontal rapid move.
G04 P10
G01 X7.24 Y0.56 % Horizontal rapid move.
G04 P10
G01 X6.54 Y0.8 % Horizontal rapid move.
G04 P10
G01 X5.91 Y1.06 % Horizontal rapid move.
G04 P10
G01 Y18.94 % Horizontal rapid move.
G04 P10
G01 X5.85 Y18.91 % Horizontal rapid move.
G04 P10
G01 X5.19 Y18.58 % Horizontal rapid move.
G04 P10
G01 X4.55 Y18.19 % Horizontal rapid move.
G04 P10
G01 X3.95 Y17.75 % Horizontal rapid move.
G04 P10
G01 X3.91 Y17.72 % Horizontal rapid move.
G04 P10
G01 Y2.28 % Horizontal rapid move.
G04 P10
G01 X3.38 Y2.73 % Horizontal rapid move.
G04 P10
G01 X2.85 Y3.25 % Horizontal rapid move.
G04 P10
G01 X2.37 Y3.8 % Horizontal rapid move.
G04 P10
G01 X1.91 Y4.41 % Horizontal rapid move.
G04 P10
G01 Y15.59 % Horizontal rapid move.
G04 P10

G01 Z0.32 F2000.0 % Vertical move.
% Starting new layer: 2/31
G00 X4.17 Y2.11 % 3D rapid move.
G01 X4.17 Y2.11 F200 % Horizontal rapid move.
G04 P10
G01 X15.83 % Horizontal rapid move.
G04 P10
G01 X16.37 Y2.54 % Horizontal rapid move.
G04 P10
G01 X16.92 Y3.05 % Horizontal rapid move.
G04 P10
G01 X17.43 Y3.59 % Horizontal rapid move.
G04 P10
G01 X17.84 Y4.11 % Horizontal rapid move.
G04 P10
G01 X2.16 % Horizontal rapid move.
G04 P10
G01 X1.97 Y4.36 % Horizontal rapid move.
G04 P10
G01 X1.57 Y4.98 % Horizontal rapid move.
G04 P10
G01 X1.21 Y5.63 % Horizontal rapid move.
G04 P10
G01 X1.0 Y6.11 % Horizontal rapid move.
G04 P10
G01 X19.01 % Horizontal rapid move.
G04 P10
G01 X19.27 Y6.79 % Horizontal rapid move.
G04 P10
G01 X19.48 Y7.5 % Horizontal rapid move.
G04 P10
G01 X19.63 Y8.11 % Horizontal rapid move.
G04 P10
G01 X0.38 % Horizontal rapid move.
G04 P10
G01 X0.31 Y8.45 % Horizontal rapid move.
G04 P10
G01 X0.22 Y9.18 % Horizontal rapid move.
G04 P10
G01 X0.19 Y9.93 % Horizontal rapid move.
G04 P10
G01 Y10.11 % Horizontal rapid move.
G04 P10
G01 X19.8 % Horizontal rapid move.
G04 P10
G01 Y10.44 % Horizontal rapid move.
G04 P10
G01 X19.74 Y11.18 % Horizontal rapid move.
G04 P10
G01 X19.62 Y11.92 % Horizontal rapid move.
G04 P10
G01 X19.58 Y12.11 % Horizontal rapid move.
G04 P10
G01 X0.42 % Horizontal rapid move.
G04 P10
G01 X0.43 Y12.14 % Horizontal rapid move.
G04 P10
G01 X0.61 Y12.86 % Horizontal rapid move.
G04 P10
G01 X0.86 Y13.56 % Horizontal rapid move.
G04 P10
G01 X1.1 Y14.11 % Horizontal rapid move.
G04 P10
G01 X18.9 % Horizontal rapid move.
G04 P10
G01 X18.61 Y14.7 % Horizontal rapid move.
G04 P10
G01 X18.23 Y15.34 % Horizontal rapid move.
G04 P10
G01 X17.81 Y15.94 % Horizontal rapid move.
G04 P10
G01 X17.67 Y16.11 % Horizontal rapid move.
G04 P10
G01 X13.62 % Horizontal rapid move.
G04 P10
G01 X2.33 % Horizontal rapid move.
G04 P10
G01 X2.34 Y16.13 % Horizontal rapid move.
G04 P10
G01 X2.82 Y16.69 % Horizontal rapid move.
G04 P10
G01 X3.34 Y17.21 % Horizontal rapid move.
G04 P10
G01 X3.91 Y17.69 % Horizontal rapid move.
G04 P10
G01 X4.49 Y18.11 % Horizontal rapid move.
G04 P10
G01 X15.51 % Horizontal rapid move.
G04 P10

G01 Z0.64 F2000.0 % Vertical move.
% Starting new layer: 3/31
G00 X17.84 Y4.16 % 3D rapid move.
G01 X17.84 Y4.16 F200 % Horizontal rapid move.
G04 P10
G01 Y15.84 % Horizontal rapid move.
G04 P10
G01 X17.82 Y15.87 % Horizontal rapid move.
G04 P10
G01 X17.36 Y16.44 % Horizontal rapid move.
G04 P10
G01 X16.84 Y16.98 % Horizontal rapid move.
G04 P10
G01 X16.3 Y17.47 % Horizontal rapid move.
G04 P10
G01 X15.84 Y17.82 % Horizontal rapid move.
G04 P10
G01 Y2.18 % Horizontal rapid move.
G04 P10
G01 X15.1 Y1.66 % Horizontal rapid move.
G04 P10
G01 X14.45 Y1.29 % Horizontal rapid move.
G04 P10
G01 X14.14 Y1.15 % Horizontal rapid move.
G04 P10
G01 X13.84 Y1.03 % Horizontal rapid move.
G04 P10
G01 Y18.99 % Horizontal rapid move.
G04 P10
G01 X13.78 Y19.01 % Horizontal rapid move.
G04 P10
G01 X13.09 Y19.28 % Horizontal rapid move.
G04 P10
G01 X12.39 Y19.48 % Horizontal rapid move.
G04 P10
G01 X11.84 Y19.59 % Horizontal rapid move.
G04 P10
G01 Y0.41 % Horizontal rapid move.
G04 P10
G01 X11.66 Y0.37 % Horizontal rapid move.
G04 P10
G01 X10.92 Y0.27 % Horizontal rapid move.
G04 P10
G01 X10.19 Y0.22 % Horizontal rapid move.
G04 P10
G01 X9.84 Y0.23 % Horizontal rapid move.
G04 P10
G01 Y19.76 % Horizontal rapid move.
G04 P10
G01 X9.05 Y19.72 % Horizontal rapid move.
G04 P10
G01 X8.71 Y19.69 % Horizontal rapid move.
G04 P10
G01 X7.84 Y19.52 % Horizontal rapid move.
G04 P10
G01 Y0.48 % Horizontal rapid move.
G04 P10
G01 X7.64 Y0.52 % Horizontal rapid move.
G04 P10
G01 X6.93 Y0.72 % Horizontal rapid move.
G04 P10
G01 X5.87 Y1.14 % Horizontal rapid move.
G04 P10
G01 X5.84 Y1.15 % Horizontal rapid move.
G04 P10
G01 Y18.85 % Horizontal rapid move.
G04 P10
G01 X5.21 Y18.53 % Horizontal rapid move.
G04 P10
G01 X4.58 Y18.14 % Horizontal rapid move.
G04 P10
G01 X3.98 Y17.71 % Horizontal rapid move.
G04 P10
G01 X3.84 Y17.58 % Horizontal rapid move.
G04 P10
G01 Y2.41 % Horizontal rapid move.
G04 P10
G01 X3.72 Y2.51 % Horizontal rapid move.
G04 P10
G01 X2.89 Y3.28 % Horizontal rapid move.
G04 P10
G01 X2.41 Y3.84 % Horizontal rapid move.
G04 P10
G01 X1.96 Y4.44 % Horizontal rapid move.
G04 P10
G01 X1.84 Y4.63 % Horizontal rapid move.
G04 P10
G01 Y15.36 % Horizontal rapid move.
G04 P10

G01 Z0.96 F2000.0 % Vertical move.
% Starting new layer: 4/31
G00 X4.18 Y2.2 % 3D rapid move.
G01 X4.18 Y2.2 F200 % Horizontal rapid move.
G04 P10
G01 X15.82 % Horizontal rapid move.
G04 P10
G01 X16.25 Y2.54 % Horizontal rapid move.
G04 P10
G01 X16.81 Y3.03 % Horizontal rapid move.
G04 P10
G01 X17.31 Y3.56 % Horizontal rapid move.
G04 P10
G01 X17.77 Y4.13 % Horizontal rapid move.
G04 P10
G01 X17.82 Y4.2 % Horizontal rapid move.
G04 P10
G01 X2.19 % Horizontal rapid move.
G04 P10
G01 X1.97 Y4.48 % Horizontal rapid move.
G04 P10
G01 X1.58 Y5.11 % Horizontal rapid move.
G04 P10
G01 X1.24 Y5.76 % Horizontal rapid move.
G04 P10
G01 X1.04 Y6.2 % Horizontal rapid move.
G04 P10
G01 X18.96 % Horizontal rapid move.
G04 P10
G01 X19.17 Y6.72 % Horizontal rapid move.
G04 P10
G01 X19.4 Y7.42 % Horizontal rapid move.
G04 P10
G01 X19.56 Y8.14 % Horizontal rapid move.
G04 P10
G01 X19.57 Y8.2 % Horizontal rapid move.
G04 P10
G01 X0.44 % Horizontal rapid move.
G04 P10
G01 X0.37 Y8.56 % Horizontal rapid move.
G04 P10
G01 X0.29 Y9.29 % Horizontal rapid move.
G04 P10
G01 X0.26 Y10.03 % Horizontal rapid move.
G04 P10
G01 X0.27 Y10.2 % Horizontal rapid move.
G04 P10
G01 X19.73 % Horizontal rapid move.
G04 P10
G01 Y10.34 % Horizontal rapid move.
G04 P10
G01 X19.68 Y11.07 % Horizontal rapid move.
G04 P10
G01 X19.57 Y11.8 % Horizontal rapid move.
G04 P10
G01 X19.48 Y12.2 % Horizontal rapid move.
G04 P10
G01 X0.51 % Horizontal rapid move.
G04 P10
G01 X0.52 Y12.23 % Horizontal rapid move.
G04 P10
G01 X0.71 Y12.93 % Horizontal rapid move.
G04 P10
G01 X0.96 Y13.62 % Horizontal rapid move.
G04 P10
G01 X1.22 Y14.2 % Horizontal rapid move.
G04 P10
G01 X18.78 % Horizontal rapid move.
G04 P10
G01 X18.6 Y14.58 % Horizontal rapid move.
G04 P10
G01 X18.23 Y15.21 % Horizontal rapid move.
G04 P10
G01 X17.81 Y15.82 % Horizontal rapid move.
G04 P10
G01 X17.5 Y16.2 % Horizontal rapid move.
G04 P10
G01 X2.49 % Horizontal rapid move.
G04 P10
G01 X2.94 Y16.71 % Horizontal rapid move.
G04 P10
G01 X3.47 Y17.23 % Horizontal rapid move.
G04 P10
G01 X4.03 Y17.7 % Horizontal rapid move.
G04 P10
G01 X4.63 Y18.12 % Horizontal rapid move.
G04 P10
G01 X4.75 Y18.2 % Horizontal rapid move.
G04 P10
G01 X15.25 % Horizontal rapid move.
G04 P10

G01 Z1.28 F2000.0 % Vertical move.
% Starting new layer: 5/31
G00 X17.73 Y4.16 % 3D rapid move.
G01 X17.73 Y4.16 F200 % Horizontal rapid move.
G04 P10
G01 Y15.82 % Horizontal rapid move.
G04 P10
G01 X17.56 Y16.04 % Horizontal rapid move.
G04 P10
G01 X17.29 Y16.38 % Horizontal rapid move.
G04 P10
G01 X16.78 Y16.91 % Horizontal rapid move.
G04 P10
G01 X16.24 Y17.41 % Horizontal rapid move.
G04 P10
G01 X15.73 Y17.81 % Horizontal rapid move.
G04 P10
G01 Y15.52 % Horizontal rapid move.
G04 P10
G01 Y2.19 % Horizontal rapid move.
G04 P10
G01 X15.66 Y2.14 % Horizontal rapid move.
G04 P10
G01 X15.05 Y1.74 % Horizontal rapid move.
G04 P10
G01 X14.66 Y1.52 % Horizontal rapid move.
G04 P10
G01 X13.75 Y1.07 % Horizontal rapid move.
G04 P10
G01 X13.73 Y1.06 % Horizontal rapid move.
G04 P10
G01 Y18.94 % Horizontal rapid move.
G04 P10
G01 X13.06 Y19.19 % Horizontal rapid move.
G04 P10
G01 X12.36 Y19.39 % Horizontal rapid move.
G04 P10
G01 X11.73 Y19.51 % Horizontal rapid move.
G04 P10
G01 Y0.49 % Horizontal rapid move.
G04 P10
G01 X11.2 Y0.4 % Horizontal rapid move.
G04 P10
G01 X10.47 Y0.33 % Horizontal rapid move.
G04 P10
G01 X9.73 % Horizontal rapid move.
G04 P10
G01 Y19.67 % Horizontal rapid move.
G04 P10
G01 X9.16 Y19.64 % Horizontal rapid move.
G04 P10
G01 X8.43 Y19.55 % Horizontal rapid move.
G04 P10
G01 X7.73 Y19.4 % Horizontal rapid move.
G04 P10
G01 Y0.6 % Horizontal rapid move.
G04 P10
G01 X7.57 Y0.64 % Horizontal rapid move.
G04 P10
G01 X6.87 Y0.84 % Horizontal rapid move.
G04 P10
G01 X5.91 Y1.22 % Horizontal rapid move.
G04 P10
G01 X5.73 Y1.31 % Horizontal rapid move.
G04 P10
G01 Y18.68 % Horizontal rapid move.
G04 P10
G01 X5.02 Y18.3 % Horizontal rapid move.
G04 P10
G01 X4.41 Y17.9 % Horizontal rapid move.
G04 P10
G01 X3.83 Y17.45 % Horizontal rapid move.
G04 P10
G01 X3.73 Y17.37 % Horizontal rapid move.
G04 P10
G01 Y2.64 % Horizontal rapid move.
G04 P10
G01 X3.71 Y2.65 % Horizontal rapid move.
G04 P10
G01 X3.17 Y3.15 % Horizontal rapid move.
G04 P10
G01 X2.66 Y3.69 % Horizontal rapid move.
G04 P10
G01 X2.21 Y4.26 % Horizontal rapid move.
G04 P10
G01 X1.8 Y4.86 % Horizontal rapid move.
G04 P10
G01 X1.73 Y4.98 % Horizontal rapid move.
G04 P10
G01 Y15.02 % Horizontal rapid move.
G04 P10

G01 Z1.6 F2000.0 % Vertical move.
% Starting new layer: 6/31
G00 X4.17 Y2.34 % 3D rapid move.
G01 X4.17 Y2.34 F200 % Horizontal rapid move.
G04 P10
G01 X15.82 % Horizontal rapid move.
G04 P10
G01 X16.2 Y2.64 % Horizontal rapid move.
G04 P10
G01 X16.73 Y3.13 % Horizontal rapid move.
G04 P10
G01 X17.24 Y3.66 % Horizontal rapid move.
G04 P10
G01 X17.7 Y4.23 % Horizontal rapid move.
G04 P10
G01 X17.78 Y4.34 % Horizontal rapid move.
G04 P10
G01 X2.23 % Horizontal rapid move.
G04 P10
G01 X2.09 Y4.53 % Horizontal rapid move.
G04 P10
G01 X1.7 Y5.14 % Horizontal rapid move.
G04 P10
G01 X1.35 Y5.78 % Horizontal rapid move.
G04 P10
G01 X1.1 Y6.34 % Horizontal rapid move.
G04 P10
G01 X18.9 % Horizontal rapid move.
G04 P10
G01 X19.07 Y6.78 % Horizontal rapid move.
G04 P10
G01 X19.29 Y7.48 % Horizontal rapid move.
G04 P10
G01 X19.45 Y8.19 % Horizontal rapid move.
G04 P10
G01 X19.48 Y8.34 % Horizontal rapid move.
G04 P10
G01 X0.53 % Horizontal rapid move.
G04 P10
G01 X0.49 Y8.55 % Horizontal rapid move.
G04 P10
G01 X0.41 Y9.27 % Horizontal rapid move.
G04 P10
G01 X0.38 Y10.0 % Horizontal rapid move.
G04 P10
G01 X0.39 Y10.34 % Horizontal rapid move.
G04 P10
G01 X19.62 % Horizontal rapid move.
G04 P10
G01 Y10.36 % Horizontal rapid move.
G04 P10
G01 X19.56 Y11.09 % Horizontal rapid move.
G04 P10
G01 X19.45 Y11.81 % Horizontal rapid move.
G04 P10
G01 X19.33 Y12.34 % Horizontal rapid move.
G04 P10
G01 X0.67 % Horizontal rapid move.
G04 P10
G01 X0.81 Y12.87 % Horizontal rapid move.
G04 P10
G01 X1.06 Y13.55 % Horizontal rapid move.
G04 P10
G01 X1.35 Y14.22 % Horizontal rapid move.
G04 P10
G01 X1.42 Y14.34 % Horizontal rapid move.
G04 P10
G01 X18.58 % Horizontal rapid move.
G04 P10
G01 X18.48 Y14.55 % Horizontal rapid move.
G04 P10
G01 X18.11 Y15.18 % Horizontal rapid move.
G04 P10
G01 X17.7 Y15.77 % Horizontal rapid move.
G04 P10
G01 X17.24 Y16.34 % Horizontal rapid move.
G04 P10
G01 X2.77 % Horizontal rapid move.
G04 P10
G01 X3.01 Y16.61 % Horizontal rapid move.
G04 P10
G01 X3.52 Y17.12 % Horizontal rapid move.
G04 P10
G01 X4.08 Y17.59 % Horizontal rapid move.
G04 P10
G01 X4.67 Y18.01 % Horizontal rapid move.
G04 P10
G01 X5.22 Y18.34 % Horizontal rapid move.
G04 P10
G01 X14.78 % Horizontal rapid move.
G04 P10

G01 Z1.92 F2000.0 % Vertical move.
% Starting new layer: 7/31
G00 X17.56 Y4.17 % 3D rapid move.
G01 X17.56 Y4.17 F200 % Horizontal rapid move.
G04 P10
G01 Y15.83 % Horizontal rapid move.
G04 P10
G01 X17.19 Y16.29 % Horizontal rapid move.
G04 P10
G01 X16.68 Y16.81 % Horizontal rapid move.
G04 P10
G01 X16.15 Y17.31 % Horizontal rapid move.
G04 P10
G01 X15.58 Y17.75 % Horizontal rapid move.
G04 P10
G01 X15.56 Y17.76 % Horizontal rapid move.
G04 P10
G01 Y2.24 % Horizontal rapid move.
G04 P10
G01 X14.98 Y1.86 % Horizontal rapid move.
G04 P10
G01 X14.35 Y1.5 % Horizontal rapid move.
G04 P10
G01 X13.69 Y1.2 % Horizontal rapid move.
G04 P10
G01 X13.56 Y1.15 % Horizontal rapid move.
G04 P10
G01 Y18.85 % Horizontal rapid move.
G04 P10
G01 X13.02 Y19.06 % Horizontal rapid move.
G04 P10
G01 X12.32 Y19.26 % Horizontal rapid move.
G04 P10
G01 X11.62 Y19.41 % Horizontal rapid move.
G04 P10
G01 X11.56 Y19.42 % Horizontal rapid move.
G04 P10
G01 Y0.58 % Horizontal rapid move.
G04 P10
G01 X10.91 Y0.5 % Horizontal rapid move.
G04 P10
G01 X10.18 Y0.45 % Horizontal rapid move.
G04 P10
G01 X9.56 Y0.47 % Horizontal rapid move.
G04 P10
G01 Y19.53 % Horizontal rapid move.
G04 P10
G01 X9.46 % Horizontal rapid move.
G04 P10
G01 X8.74 Y19.46 % Horizontal rapid move.
G04 P10
G01 X8.03 Y19.34 % Horizontal rapid move.
G04 P10
G01 X7.56 Y19.23 % Horizontal rapid move.
G04 P10
G01 Y0.77 % Horizontal rapid move.
G04 P10
G01 X7.32 Y0.83 % Horizontal rapid move.
G04 P10
G01 X6.64 Y1.06 % Horizontal rapid move.
G04 P10
G01 X5.97 Y1.35 % Horizontal rapid move.
G04 P10
G01 X5.56 Y1.56 % Horizontal rapid move.
G04 P10
G01 Y18.44 % Horizontal rapid move.
G04 P10
G01 X5.33 Y18.33 % Horizontal rapid move.
G04 P10
G01 X4.71 Y17.95 % Horizontal rapid move.
G04 P10
G01 X4.13 Y17.53 % Horizontal rapid move.
G04 P10
G01 X3.56 Y17.01 % Horizontal rapid move.
G04 P10
G01 Y2.96 % Horizontal rapid move.
G04 P10
G01 X3.06 Y3.44 % Horizontal rapid move.
G04 P10
G01 X2.59 Y3.98 % Horizontal rapid move.
G04 P10
G01 X2.15 Y4.57 % Horizontal rapid move.
G04 P10
G01 X1.76 Y5.18 % Horizontal rapid move.
G04 P10
G01 X1.56 Y5.56 % Horizontal rapid move.
G04 P10
G01 Y14.44 % Horizontal rapid move.
G04 P10

G01 Z2.24 F2000.0 % Vertical move.
% Starting new layer: 8/31
G00 X4.18 Y2.54 % 3D rapid move.
G01 X4.18 Y2.54 F200 % Horizontal rapid move.
G04 P10
G01 X15.8 % Horizontal rapid move.
G04 P10
G01 X16.09 Y2.76 % Horizontal rapid move.
G04 P10
G01 X16.62 Y3.25 % Horizontal rapid move.
G04 P10
G01 X17.12 Y3.77 % Horizontal rapid move.
G04 P10
G01 X17.57 Y4.32 % Horizontal rapid move.
G04 P10
G01 X17.72 Y4.54 % Horizontal rapid move.
G04 P10
G01 X2.28 % Horizontal rapid move.
G04 P10
G01 X2.22 Y4.62 % Horizontal rapid move.
G04 P10
G01 X1.84 Y5.22 % Horizontal rapid move.
G04 P10
G01 X1.49 Y5.85 % Horizontal rapid move.
G04 P10
G01 X1.21 Y6.5 % Horizontal rapid move.
G04 P10
G01 X1.2 Y6.54 % Horizontal rapid move.
G04 P10
G01 X18.8 % Horizontal rapid move.
G04 P10
G01 X18.92 Y6.84 % Horizontal rapid move.
G04 P10
G01 X19.14 Y7.52 % Horizontal rapid move.
G04 P10
G01 X19.29 Y8.22 % Horizontal rapid move.
G04 P10
G01 X19.34 Y8.54 % Horizontal rapid move.
G04 P10
G01 X0.66 % Horizontal rapid move.
G04 P10
G01 X0.65 Y8.57 % Horizontal rapid move.
G04 P10
G01 X0.57 Y9.28 % Horizontal rapid move.
G04 P10
G01 X0.54 Y10.0 % Horizontal rapid move.
G04 P10
G01 X0.56 Y10.54 % Horizontal rapid move.
G04 P10
G01 X19.44 % Horizontal rapid move.
G04 P10
G01 X19.4 Y11.07 % Horizontal rapid move.
G04 P10
G01 X19.29 Y11.78 % Horizontal rapid move.
G04 P10
G01 X19.14 Y12.48 % Horizontal rapid move.
G04 P10
G01 X19.12 Y12.54 % Horizontal rapid move.
G04 P10
G01 X0.9 % Horizontal rapid move.
G04 P10
G01 X0.97 Y12.83 % Horizontal rapid move.
G04 P10
G01 X1.21 Y13.5 % Horizontal rapid move.
G04 P10
G01 X1.49 Y14.15 % Horizontal rapid move.
G04 P10
G01 X1.7 Y14.54 % Horizontal rapid move.
G04 P10
G01 X18.3 % Horizontal rapid move.
G04 P10
G01 X17.97 Y15.09 % Horizontal rapid move.
G04 P10
G01 X17.57 Y15.68 % Horizontal rapid move.
G04 P10
G01 X17.12 Y16.23 % Horizontal rapid move.
G04 P10
G01 X16.83 Y16.54 % Horizontal rapid move.
G04 P10
G01 X3.16 % Horizontal rapid move.
G04 P10
G01 X3.63 Y17.0 % Horizontal rapid move.
G04 P10
G01 X4.18 Y17.46 % Horizontal rapid move.
G04 P10
G01 X4.76 Y17.87 % Horizontal rapid move.
G04 P10
G01 X5.37 Y18.25 % Horizontal rapid move.
G04 P10
G01 X5.92 Y18.54 % Horizontal rapid move.
G04 P10
G01 X14.07 % Horizontal rapid move.
G04 P10

G01 Z2.56 F2000.0 % Vertical move.
% Starting new layer: 9/31
G00 X19.34 Y9.4 % 3D rapid move.
G01 X19.34 Y9.4 F200 % Horizontal rapid move.
G04 P10
G01 Y10.6 % Horizontal rapid move.
G04 P10
G01 X19.31 Y11.06 % Horizontal rapid move.
G04 P10
G01 X19.2 Y11.76 % Horizontal rapid move.
G04 P10
G01 X19.04 Y12.45 % Horizontal rapid move.
G04 P10
G01 X18.83 Y13.13 % Horizontal rapid move.
G04 P10
G01 X18.56 Y13.79 % Horizontal rapid move.
G04 P10
G01 X18.26 Y14.43 % Horizontal rapid move.
G04 P10
G01 X17.89 Y15.04 % Horizontal rapid move.
G04 P10
G01 X17.49 Y15.62 % Horizontal rapid move.
G04 P10
G01 X17.34 Y15.8 % Horizontal rapid move.
G04 P10
G01 Y4.2 % Horizontal rapid move.
G04 P10
G01 X17.05 Y3.83 % Horizontal rapid move.
G04 P10
G01 X16.56 Y3.32 % Horizontal rapid move.
G04 P10
G01 X16.03 Y2.84 % Horizontal rapid move.
G04 P10
G01 X15.47 Y2.4 % Horizontal rapid move.
G04 P10
G01 X15.34 Y2.32 % Horizontal rapid move.
G04 P10
G01 Y17.68 % Horizontal rapid move.
G04 P10
G01 X14.88 Y17.99 % Horizontal rapid move.
G04 P10
G01 X14.27 Y18.34 % Horizontal rapid move.
G04 P10
G01 X13.62 Y18.63 % Horizontal rapid move.
G04 P10
G01 X13.34 Y18.74 % Horizontal rapid move.
G04 P10
G01 Y1.26 % Horizontal rapid move.
G04 P10
G01 X12.96 Y1.11 % Horizontal rapid move.
G04 P10
G01 X12.28 Y0.92 % Horizontal rapid move.
G04 P10
G01 X11.59 Y0.77 % Horizontal rapid move.
G04 P10
G01 X11.34 Y0.74 % Horizontal rapid move.
G04 P10
G01 Y19.26 % Horizontal rapid move.
G04 P10
G01 X10.78 Y19.33 % Horizontal rapid move.
G04 P10
G01 X9.47 Y19.35 % Horizontal rapid move.
G04 P10
G01 X9.34 Y19.34 % Horizontal rapid move.
G04 P10
G01 Y0.66 % Horizontal rapid move.
G04 P10
G01 X8.76 Y0.72 % Horizontal rapid move.
G04 P10
G01 X8.06 Y0.84 % Horizontal rapid move.
G04 P10
G01 X7.37 Y1.0 % Horizontal rapid move.
G04 P10
G01 X7.34 Y1.01 % Horizontal rapid move.
G04 P10
G01 Y18.99 % Horizontal rapid move.
G04 P10
G01 X6.7 Y18.77 % Horizontal rapid move.
G04 P10
G01 X6.05 Y18.49 % Horizontal rapid move.
G04 P10
G01 X5.42 Y18.17 % Horizontal rapid move.
G04 P10
G01 X5.34 Y18.12 % Horizontal rapid move.
G04 P10
G01 Y1.88 % Horizontal rapid move.
G04 P10
G01 X4.81 Y2.19 % Horizontal rapid move.
G04 P10
G01 X4.24 Y2.62 % Horizontal rapid move.
G04 P10
G01 X3.7 Y3.07 % Horizontal rapid move.
G04 P10
G01 X3.34 Y3.42 % Horizontal rapid move.
G04 P10
G01 Y16.58 % Horizontal rapid move.
G04 P10
G01 X3.19 Y16.44 % Horizontal rapid move.
G04 P10
G01 X2.73 Y15.9 % Horizontal rapid move.
G04 P10
G01 X2.3 Y15.33 % Horizontal rapid move.
G04 P10
G01 X1.92 Y14.73 % Horizontal rapid move.
G04 P10
G01 X1.58 Y14.11 % Horizontal rapid move.
G04 P10
G01 X1.34 Y13.56 % Horizontal rapid move.
G04 P10
G01 Y6.44 % Horizontal rapid move.
G04 P10

G01 Z2.88 F2000.0 % Vertical move.
% Starting new layer: 10/31
G00 X9.16 Y0.79 % 3D rapid move.
G01 X9.16 Y0.79 F200 % Horizontal rapid move.
G04 P10
G01 X10.89 % Horizontal rapid move.
G04 P10
G01 X11.56 Y0.88 % Horizontal rapid move.
G04 P10
G01 X12.25 Y1.03 % Horizontal rapid move.
G04 P10
G01 X12.92 Y1.22 % Horizontal rapid move.
G04 P10
G01 X13.58 Y1.47 % Horizontal rapid move.
G04 P10
G01 X14.22 Y1.76 % Horizontal rapid move.
G04 P10
G01 X14.83 Y2.11 % Horizontal rapid move.
G04 P10
G01 X15.41 Y2.49 % Horizontal rapid move.
G04 P10
G01 X15.79 Y2.79 % Horizontal rapid move.
G04 P10
G01 X4.2 % Horizontal rapid move.
G04 P10
G01 X3.77 Y3.15 % Horizontal rapid move.
G04 P10
G01 X3.27 Y3.64 % Horizontal rapid move.
G04 P10
G01 X2.82 Y4.17 % Horizontal rapid move.
G04 P10
G01 X2.39 Y4.74 % Horizontal rapid move.
G04 P10
G01 X2.36 Y4.79 % Horizontal rapid move.
G04 P10
G01 X17.64 % Horizontal rapid move.
G04 P10
G01 X17.65 Y4.8 % Horizontal rapid move.
G04 P10
G01 X18.02 Y5.39 % Horizontal rapid move.
G04 P10
G01 X18.34 Y6.0 % Horizontal rapid move.
G04 P10
G01 X18.67 Y6.79 % Horizontal rapid move.
G04 P10
G01 X1.32 % Horizontal rapid move.
G04 P10
G01 X1.16 Y7.24 % Horizontal rapid move.
G04 P10
G01 X0.93 Y8.19 % Horizontal rapid move.
G04 P10
G01 X0.83 Y8.79 % Horizontal rapid move.
G04 P10
G01 X19.16 % Horizontal rapid move.
G04 P10
G01 X19.23 Y9.37 % Horizontal rapid move.
G04 P10
G01 X19.25 Y10.36 % Horizontal rapid move.
G04 P10
G01 X19.21 Y10.79 % Horizontal rapid move.
G04 P10
G01 X0.78 % Horizontal rapid move.
G04 P10
G01 X0.85 Y11.4 % Horizontal rapid move.
G04 P10
G01 X0.99 Y12.09 % Horizontal rapid move.
G04 P10
G01 X1.16 Y12.76 % Horizontal rapid move.
G04 P10
G01 X1.18 Y12.79 % Horizontal rapid move.
G04 P10
G01 X18.82 % Horizontal rapid move.
G04 P10
G01 X18.72 Y13.09 % Horizontal rapid move.
G04 P10
G01 X18.46 Y13.74 % Horizontal rapid move.
G04 P10
G01 X18.16 Y14.37 % Horizontal rapid move.
G04 P10
G01 X17.91 Y14.79 % Horizontal rapid move.
G04 P10
G01 X2.1 % Horizontal rapid move.
G04 P10
G01 X2.56 Y15.49 % Horizontal rapid move.
G04 P10
G01 X3.27 Y16.36 % Horizontal rapid move.
G04 P10
G01 X3.71 Y16.79 % Horizontal rapid move.
G04 P10
G01 X16.28 % Horizontal rapid move.
G04 P10
G01 X15.96 Y17.08 % Horizontal rapid move.
G04 P10
G01 X15.41 Y17.51 % Horizontal rapid move.
G04 P10
G01 X14.83 Y17.89 % Horizontal rapid move.
G04 P10
G01 X14.22 Y18.24 % Horizontal rapid move.
G04 P10
G01 X13.58 Y18.53 % Horizontal rapid move.
G04 P10
G01 X12.92 Y18.78 % Horizontal rapid move.
G04 P10
G01 X12.88 Y18.79 % Horizontal rapid move.
G04 P10
G01 X7.15 % Horizontal rapid move.
G04 P10

G01 Z3.2 F2000.0 % Vertical move.
% Starting new layer: 11/31
G00 X19.06 Y8.9 % 3D rapid move.
G01 X19.06 Y8.9 F200 % Horizontal rapid move.
G04 P10
G01 Y11.12 % Horizontal rapid move.
G04 P10
G01 X18.96 Y11.76 % Horizontal rapid move.
G04 P10
G01 X18.81 Y12.44 % Horizontal rapid move.
G04 P10
G01 X18.6 Y13.1 % Horizontal rapid move.
G04 P10
G01 X18.33 Y13.74 % Horizontal rapid move.
G04 P10
G01 X18.03 Y14.36 % Horizontal rapid move.
G04 P10
G01 X17.67 Y14.95 % Horizontal rapid move.
G04 P10
G01 X17.28 Y15.52 % Horizontal rapid move.
G04 P10
G01 X17.06 Y15.78 % Horizontal rapid move.
G04 P10
G01 Y4.22 % Horizontal rapid move.
G04 P10
G01 X16.91 Y4.02 % Horizontal rapid move.
G04 P10
G01 X16.43 Y3.51 % Horizontal rapid move.
G04 P10
G01 X15.92 Y3.04 % Horizontal rapid move.
G04 P10
G01 X15.38 Y2.61 % Horizontal rapid move.
G04 P10
G01 X15.06 Y2.4 % Horizontal rapid move.
G04 P10
G01 Y17.6 % Horizontal rapid move.
G04 P10
G01 X14.73 Y17.82 % Horizontal rapid move.
G04 P10
G01 X14.12 Y18.16 % Horizontal rapid move.
G04 P10
G01 X13.49 Y18.44 % Horizontal rapid move.
G04 P10
G01 X13.06 Y18.6 % Horizontal rapid move.
G04 P10
G01 Y1.39 % Horizontal rapid move.
G04 P10
G01 X12.93 Y1.34 % Horizontal rapid move.
G04 P10
G01 X12.27 Y1.15 % Horizontal rapid move.
G04 P10
G01 X11.59 Y1.01 % Horizontal rapid move.
G04 P10
G01 X11.06 Y0.93 % Horizontal rapid move.
G04 P10
G01 Y19.07 % Horizontal rapid move.
G04 P10
G01 X10.82 Y19.1 % Horizontal rapid move.
G04 P10
G01 X10.13 Y19.14 % Horizontal rapid move.
G04 P10
G01 X9.44 Y19.12 % Horizontal rapid move.
G04 P10
G01 X9.06 Y19.08 % Horizontal rapid move.
G04 P10
G01 Y0.92 % Horizontal rapid move.
G04 P10
G01 X8.84 Y0.94 % Horizontal rapid move.
G04 P10
G01 X8.16 Y1.05 % Horizontal rapid move.
G04 P10
G01 X7.48 Y1.21 % Horizontal rapid move.
G04 P10
G01 X7.06 Y1.35 % Horizontal rapid move.
G04 P10
G01 Y15.14 % Horizontal rapid move.
G04 P10
G01 Y18.63 % Horizontal rapid move.
G04 P10
G01 X6.1 Y18.26 % Horizontal rapid move.
G04 P10
G01 X5.49 Y17.95 % Horizontal rapid move.
G04 P10
G01 X5.06 Y17.68 % Horizontal rapid move.
G04 P10
G01 Y2.32 % Horizontal rapid move.
G04 P10
G01 X4.98 Y2.37 % Horizontal rapid move.
G04 P10
G01 X4.42 Y2.77 % Horizontal rapid move.
G04 P10
G01 X3.89 Y3.21 % Horizontal rapid move.
G04 P10
G01 X3.39 Y3.69 % Horizontal rapid move.
G04 P10
G01 X3.06 Y4.07 % Horizontal rapid move.
G04 P10
G01 Y15.93 % Horizontal rapid move.
G04 P10
G01 X2.88 Y15.72 % Horizontal rapid move.
G04 P10
G01 X2.46 Y15.16 % Horizontal rapid move.
G04 P10
G01 X2.09 Y14.57 % Horizontal rapid move.
G04 P10
G01 X1.77 Y13.96 % Horizontal rapid move.
G04 P10
G01 X1.49 Y13.34 % Horizontal rapid move.
G04 P10
G01 X1.26 Y12.69 % Horizontal rapid move.
G04 P10
G01 X1.09 Y12.02 % Horizontal rapid move.
G04 P10
G01 X1.06 Y11.9 % Horizontal rapid move.
G04 P10
G01 Y8.11 % Horizontal rapid move.
G04 P10

G01 Z3.52 F2000.0 % Vertical move.
% Starting new layer: 12/31
G00 X8.66 Y1.1 % 3D rapid move.
G01 X8.66 Y1.1 F200 % Horizontal rapid move.
G04 P10
G01 X11.31 % Horizontal rapid move.
G04 P10
G01 X11.52 Y1.13 % Horizontal rapid move.
G04 P10
G01 X12.54 Y1.37 % Horizontal rapid move.
G04 P10
G01 X13.18 Y1.59 % Horizontal rapid move.
G04 P10
G01 X13.48 Y1.7 % Horizontal rapid move.
G04 P10
G01 X14.42 Y2.16 % Horizontal rapid move.
G04 P10
G01 X15.0 Y2.52 % Horizontal rapid move.
G04 P10
G01 X15.79 Y3.1 % Horizontal rapid move.
G04 P10
G01 X4.24 % Horizontal rapid move.
G04 P10
G01 X3.94 Y3.34 % Horizontal rapid move.
G04 P10
G01 X3.72 Y3.56 % Horizontal rapid move.
G04 P10
G01 X3.01 Y4.34 % Horizontal rapid move.
G04 P10
G01 X2.6 Y4.87 % Horizontal rapid move.
G04 P10
G01 X2.46 Y5.1 % Horizontal rapid move.
G04 P10
G01 X17.53 % Horizontal rapid move.
G04 P10
G01 X17.77 Y5.47 % Horizontal rapid move.
G04 P10
G01 X18.23 Y6.36 % Horizontal rapid move.
G04 P10
G01 X18.48 Y6.99 % Horizontal rapid move.
G04 P10
G01 X18.51 Y7.1 % Horizontal rapid move.
G04 P10
G01 X1.49 % Horizontal rapid move.
G04 P10
G01 X1.41 Y7.31 % Horizontal rapid move.
G04 P10
G01 X1.17 Y8.29 % Horizontal rapid move.
G04 P10
G01 X1.06 Y9.1 % Horizontal rapid move.
G04 P10
G01 X18.95 % Horizontal rapid move.
G04 P10
G01 X18.99 Y9.66 % Horizontal rapid move.
G04 P10
G01 Y10.34 % Horizontal rapid move.
G04 P10
G01 X18.94 Y11.02 % Horizontal rapid move.
G04 P10
G01 X18.93 Y11.1 % Horizontal rapid move.
G04 P10
G01 X1.08 % Horizontal rapid move.
G04 P10
G01 X1.11 Y11.36 % Horizontal rapid move.
G04 P10
G01 X1.32 Y12.34 % Horizontal rapid move.
G04 P10
G01 X1.57 Y13.1 % Horizontal rapid move.
G04 P10
G01 X18.43 % Horizontal rapid move.
G04 P10
G01 X18.35 Y13.35 % Horizontal rapid move.
G04 P10
G01 X18.08 Y13.96 % Horizontal rapid move.
G04 P10
G01 X17.58 Y14.84 % Horizontal rapid move.
G04 P10
G01 X17.4 Y15.1 % Horizontal rapid move.
G04 P10
G01 X2.6 % Horizontal rapid move.
G04 P10
G01 X2.79 Y15.38 % Horizontal rapid move.
G04 P10
G01 X3.22 Y15.91 % Horizontal rapid move.
G04 P10
G01 X3.94 Y16.66 % Horizontal rapid move.
G04 P10
G01 X4.46 Y17.09 % Horizontal rapid move.
G04 P10
G01 X4.48 Y17.1 % Horizontal rapid move.
G04 P10
G01 X15.52 % Horizontal rapid move.
G04 P10

G01 Z3.84 F2000.0 % Vertical move.
% Starting new layer: 13/31
G00 X18.73 Y8.5 % 3D rapid move.
G01 X18.73 Y8.5 F200 % Horizontal rapid move.
G04 P10
G01 Y11.51 % Horizontal rapid move.
G04 P10
G01 X18.7 Y11.67 % Horizontal rapid move.
G04 P10
G01 X18.55 Y12.32 % Horizontal rapid move.
G04 P10
G01 X18.35 Y12.96 % Horizontal rapid move.
G04 P10
G01 X18.1 Y13.58 % Horizontal rapid move.
G04 P10
G01 X17.81 Y14.19 % Horizontal rapid move.
G04 P10
G01 X17.46 Y14.77 % Horizontal rapid move.
G04 P10
G01 X17.09 Y15.32 % Horizontal rapid move.
G04 P10
G01 X16.73 Y15.77 % Horizontal rapid move.
G04 P10
G01 Y4.24 % Horizontal rapid move.
G04 P10
G01 X16.67 Y4.17 % Horizontal rapid move.
G04 P10
G01 X16.2 Y3.68 % Horizontal rapid move.
G04 P10
G01 X15.71 Y3.22 % Horizontal rapid move.
G04 P10
G01 X15.18 Y2.81 % Horizontal rapid move.
G04 P10
G01 X14.73 Y2.51 % Horizontal rapid move.
G04 P10
G01 Y17.49 % Horizontal rapid move.
G04 P10
G01 X14.62 Y17.56 % Horizontal rapid move.
G04 P10
G01 X14.03 Y17.89 % Horizontal rapid move.
G04 P10
G01 X13.43 Y18.17 % Horizontal rapid move.
G04 P10
G01 X12.8 Y18.41 % Horizontal rapid move.
G04 P10
G01 X12.73 Y18.43 % Horizontal rapid move.
G04 P10
G01 Y1.57 % Horizontal rapid move.
G04 P10
G01 X12.16 Y1.41 % Horizontal rapid move.
G04 P10
G01 X11.5 Y1.27 % Horizontal rapid move.
G04 P10
G01 X10.84 Y1.18 % Horizontal rapid move.
G04 P10
G01 X10.73 Y1.17 % Horizontal rapid move.
G04 P10
G01 Y18.83 % Horizontal rapid move.
G04 P10
G01 X10.17 Y18.86 % Horizontal rapid move.
G04 P10
G01 X9.5 Y18.84 % Horizontal rapid move.
G04 P10
G01 X8.83 Y18.78 % Horizontal rapid move.
G04 P10
G01 X8.73 Y18.76 % Horizontal rapid move.
G04 P10
G01 Y1.24 % Horizontal rapid move.
G04 P10
G01 X8.17 Y1.34 % Horizontal rapid move.
G04 P10
G01 X7.52 Y1.49 % Horizontal rapid move.
G04 P10
G01 X6.88 Y1.71 % Horizontal rapid move.
G04 P10
G01 X6.73 Y1.78 % Horizontal rapid move.
G04 P10
G01 Y18.22 % Horizontal rapid move.
G04 P10
G01 X6.26 Y18.03 % Horizontal rapid move.
G04 P10
G01 X5.66 Y17.73 % Horizontal rapid move.
G04 P10
G01 X5.09 Y17.38 % Horizontal rapid move.
G04 P10
G01 X4.73 Y17.11 % Horizontal rapid move.
G04 P10
G01 Y2.89 % Horizontal rapid move.
G04 P10
G01 X4.55 Y3.02 % Horizontal rapid move.
G04 P10
G01 X4.04 Y3.44 % Horizontal rapid move.
G04 P10
G01 X3.56 Y3.91 % Horizontal rapid move.
G04 P10
G01 X3.12 Y4.42 % Horizontal rapid move.
G04 P10
G01 X2.73 Y4.94 % Horizontal rapid move.
G04 P10
G01 Y15.06 % Horizontal rapid move.
G04 P10

G01 Z4.16 F2000.0 % Vertical move.
% Starting new layer: 14/31
G00 X8.36 Y1.47 % 3D rapid move.
G01 X8.36 Y1.47 F200 % Horizontal rapid move.
G04 P10
G01 X11.62 % Horizontal rapid move.
G04 P10
G01 X11.78 Y1.5 % Horizontal rapid move.
G04 P10
G01 X12.75 Y1.75 % Horizontal rapid move.
G04 P10
G01 X13.65 Y2.12 % Horizontal rapid move.
G04 P10
G01 X14.24 Y2.42 % Horizontal rapid move.
G04 P10
G01 X14.8 Y2.75 % Horizontal rapid move.
G04 P10
G01 X15.6 Y3.35 % Horizontal rapid move.
G04 P10
G01 X15.72 Y3.47 % Horizontal rapid move.
G04 P10
G01 X4.27 % Horizontal rapid move.
G04 P10
G01 X4.15 Y3.57 % Horizontal rapid move.
G04 P10
G01 X3.91 Y3.81 % Horizontal rapid move.
G04 P10
G01 X3.45 Y4.29 % Horizontal rapid move.
G04 P10
G01 X3.04 Y4.8 % Horizontal rapid move.
G04 P10
G01 X2.59 Y5.47 % Horizontal rapid move.
G04 P10
G01 X17.41 % Horizontal rapid move.
G04 P10
G01 X17.66 Y5.89 % Horizontal rapid move.
G04 P10
G01 X17.94 Y6.48 % Horizontal rapid move.
G04 P10
G01 X18.29 Y7.39 % Horizontal rapid move.
G04 P10
G01 X18.31 Y7.47 % Horizontal rapid move.
G04 P10
G01 X1.69 % Horizontal rapid move.
G04 P10
G01 X1.62 Y7.74 % Horizontal rapid move.
G04 P10
G01 X1.41 Y8.69 % Horizontal rapid move.
G04 P10
G01 X1.34 Y9.47 % Horizontal rapid move.
G04 P10
G01 X18.66 % Horizontal rapid move.
G04 P10
G01 X18.68 Y10.33 % Horizontal rapid move.
G04 P10
G01 X18.63 Y10.98 % Horizontal rapid move.
G04 P10
G01 X18.56 Y11.47 % Horizontal rapid move.
G04 P10
G01 X1.44 % Horizontal rapid move.
G04 P10
G01 X1.48 Y11.65 % Horizontal rapid move.
G04 P10
G01 X1.7 Y12.6 % Horizontal rapid move.
G04 P10
G01 X2.04 Y13.47 % Horizontal rapid move.
G04 P10
G01 X17.96 % Horizontal rapid move.
G04 P10
G01 X17.94 Y13.52 % Horizontal rapid move.
G04 P10
G01 X17.66 Y14.11 % Horizontal rapid move.
G04 P10
G01 X17.15 Y14.93 % Horizontal rapid move.
G04 P10
G01 X16.73 Y15.47 % Horizontal rapid move.
G04 P10
G01 X3.24 % Horizontal rapid move.
G04 P10
G01 X3.25 % Horizontal rapid move.
G04 P10
G01 X3.93 Y16.21 % Horizontal rapid move.
G04 P10
G01 X4.42 Y16.65 % Horizontal rapid move.
G04 P10
G01 X4.94 Y17.06 % Horizontal rapid move.
G04 P10
G01 X5.58 Y17.47 % Horizontal rapid move.
G04 P10
G01 X14.43 % Horizontal rapid move.
G04 P10

G01 Z4.48 F2000.0 % Vertical move.
% Starting new layer: 15/31
G00 X18.31 Y8.17 % 3D rapid move.
G01 X18.31 Y8.17 F200 % Horizontal rapid move.
G04 P10
G01 Y11.83 % Horizontal rapid move.
G04 P10
G01 X18.23 Y12.21 % Horizontal rapid move.
G04 P10
G01 X18.04 Y12.83 % Horizontal rapid move.
G04 P10
G01 X17.8 Y13.43 % Horizontal rapid move.
G04 P10
G01 X17.52 Y14.01 % Horizontal rapid move.
G04 P10
G01 X17.19 Y14.56 % Horizontal rapid move.
G04 P10
G01 X16.83 Y15.1 % Horizontal rapid move.
G04 P10
G01 X16.43 Y15.6 % Horizontal rapid move.
G04 P10
G01 X16.31 Y15.72 % Horizontal rapid move.
G04 P10
G01 Y4.28 % Horizontal rapid move.
G04 P10
G01 X15.96 Y3.91 % Horizontal rapid move.
G04 P10
G01 X15.47 Y3.47 % Horizontal rapid move.
G04 P10
G01 X14.96 Y3.07 % Horizontal rapid move.
G04 P10
G01 X14.43 Y2.72 % Horizontal rapid move.
G04 P10
G01 X14.31 Y2.65 % Horizontal rapid move.
G04 P10
G01 Y17.34 % Horizontal rapid move.
G04 P10
G01 X13.9 Y17.58 % Horizontal rapid move.
G04 P10
G01 X13.31 Y17.85 % Horizontal rapid move.
G04 P10
G01 X12.71 Y18.08 % Horizontal rapid move.
G04 P10
G01 X12.31 Y18.19 % Horizontal rapid move.
G04 P10
G01 Y1.81 % Horizontal rapid move.
G04 P10
G01 X12.05 Y1.74 % Horizontal rapid move.
G04 P10
G01 X11.42 Y1.6 % Horizontal rapid move.
G04 P10
G01 X10.79 Y1.52 % Horizontal rapid move.
G04 P10
G01 X10.31 Y1.49 % Horizontal rapid move.
G04 P10
G01 Y18.51 % Horizontal rapid move.
G04 P10
G01 X10.16 Y18.52 % Horizontal rapid move.
G04 P10
G01 X9.54 Y18.51 % Horizontal rapid move.
G04 P10
G01 X8.9 Y18.45 % Horizontal rapid move.
G04 P10
G01 X8.31 Y18.35 % Horizontal rapid move.
G04 P10
G01 Y1.65 % Horizontal rapid move.
G04 P10
G01 X8.22 Y1.67 % Horizontal rapid move.
G04 P10
G01 X7.59 Y1.82 % Horizontal rapid move.
G04 P10
G01 X6.98 Y2.03 % Horizontal rapid move.
G04 P10
G01 X6.39 Y2.29 % Horizontal rapid move.
G04 P10
G01 X6.31 Y2.33 % Horizontal rapid move.
G04 P10
G01 Y17.68 % Horizontal rapid move.
G04 P10
G01 X5.85 Y17.44 % Horizontal rapid move.
G04 P10
G01 X5.3 Y17.1 % Horizontal rapid move.
G04 P10
G01 X4.77 Y16.73 % Horizontal rapid move.
G04 P10
G01 X4.31 Y16.35 % Horizontal rapid move.
G04 P10
G01 Y3.66 % Horizontal rapid move.
G04 P10
G01 X4.25 Y3.71 % Horizontal rapid move.
G04 P10
G01 X3.79 Y4.16 % Horizontal rapid move.
G04 P10
G01 X3.37 Y4.65 % Horizontal rapid move.
G04 P10
G01 X2.98 Y5.16 % Horizontal rapid move.
G04 P10
G01 X2.64 Y5.72 % Horizontal rapid move.
G04 P10
G01 X2.34 Y6.28 % Horizontal rapid move.
G04 P10
G01 X2.31 Y6.32 % Horizontal rapid move.
G04 P10
G01 Y13.66 % Horizontal rapid move.
G04 P10

G01 Z4.8 F2000.0 % Vertical move.
% Starting new layer: 16/31
G00 X8.07 Y1.92 % 3D rapid move.
G01 X8.07 Y1.92 F200 % Horizontal rapid move.
G04 P10
G01 X11.93 % Horizontal rapid move.
G04 P10
G01 X12.31 Y2.01 % Horizontal rapid move.
G04 P10
G01 X12.63 Y2.1 % Horizontal rapid move.
G04 P10
G01 X13.49 Y2.45 % Horizontal rapid move.
G04 P10
G01 X14.34 Y2.9 % Horizontal rapid move.
G04 P10
G01 X15.1 Y3.43 % Horizontal rapid move.
G04 P10
G01 X15.58 Y3.83 % Horizontal rapid move.
G04 P10
G01 X15.67 Y3.92 % Horizontal rapid move.
G04 P10
G01 X4.33 % Horizontal rapid move.
G04 P10
G01 X4.15 Y4.08 % Horizontal rapid move.
G04 P10
G01 X3.72 Y4.54 % Horizontal rapid move.
G04 P10
G01 X3.33 Y5.03 % Horizontal rapid move.
G04 P10
G01 X2.98 Y5.55 % Horizontal rapid move.
G04 P10
G01 X2.76 Y5.92 % Horizontal rapid move.
G04 P10
G01 X17.24 % Horizontal rapid move.
G04 P10
G01 X17.47 Y6.33 % Horizontal rapid move.
G04 P10
G01 X17.72 Y6.9 % Horizontal rapid move.
G04 P10
G01 X18.04 Y7.82 % Horizontal rapid move.
G04 P10
G01 X18.06 Y7.92 % Horizontal rapid move.
G04 P10
G01 X1.96 % Horizontal rapid move.
G04 P10
G01 X1.83 Y8.46 % Horizontal rapid move.
G04 P10
G01 X1.7 Y9.37 % Horizontal rapid move.
G04 P10
G01 X1.69 Y9.7 % Horizontal rapid move.
G04 P10
G01 Y9.92 % Horizontal rapid move.
G04 P10
G01 X18.32 % Horizontal rapid move.
G04 P10
G01 Y9.98 % Horizontal rapid move.
G04 P10
G01 Y10.31 % Horizontal rapid move.
G04 P10
G01 X18.27 Y10.94 % Horizontal rapid move.
G04 P10
G01 X18.17 Y11.56 % Horizontal rapid move.
G04 P10
G01 X18.09 Y11.92 % Horizontal rapid move.
G04 P10
G01 X1.92 % Horizontal rapid move.
G04 P10
G01 X2.05 Y12.48 % Horizontal rapid move.
G04 P10
G01 X2.41 Y13.39 % Horizontal rapid move.
G04 P10
G01 X2.67 Y13.92 % Horizontal rapid move.
G04 P10
G01 X17.33 % Horizontal rapid move.
G04 P10
G01 X17.32 Y13.93 % Horizontal rapid move.
G04 P10
G01 X17.19 Y14.18 % Horizontal rapid move.
G04 P10
G01 X16.66 Y14.99 % Horizontal rapid move.
G04 P10
G01 X16.06 Y15.7 % Horizontal rapid move.
G04 P10
G01 X15.83 Y15.92 % Horizontal rapid move.
G04 P10
G01 X4.16 % Horizontal rapid move.
G04 P10
G01 X4.19 Y15.95 % Horizontal rapid move.
G04 P10
G01 X4.66 Y16.37 % Horizontal rapid move.
G04 P10
G01 X5.39 Y16.93 % Horizontal rapid move.
G04 P10
G01 X6.23 Y17.42 % Horizontal rapid move.
G04 P10
G01 X7.07 Y17.79 % Horizontal rapid move.
G04 P10
G01 X7.49 Y17.92 % Horizontal rapid move.
G04 P10
G01 X12.56 % Horizontal rapid move.
G04 P10

G01 Z5.12 F2000.0 % Vertical move.
% Starting new layer: 17/31
G00 X17.83 Y7.85 % 3D rapid move.
G01 X17.83 Y7.85 F200 % Horizontal rapid move.
G04 P10
G01 Y12.16 % Horizontal rapid move.
G04 P10
G01 X17.66 Y12.7 % Horizontal rapid move.
G04 P10
G01 X17.43 Y13.27 % Horizontal rapid move.
G04 P10
G01 X17.17 Y13.83 % Horizontal rapid move.
G04 P10
G01 X16.85 Y14.36 % Horizontal rapid move.
G04 P10
G01 X16.5 Y14.86 % Horizontal rapid move.
G04 P10
G01 X16.12 Y15.34 % Horizontal rapid move.
G04 P10
G01 X15.83 Y15.64 % Horizontal rapid move.
G04 P10
G01 Y4.36 % Horizontal rapid move.
G04 P10
G01 X15.68 Y4.2 % Horizontal rapid move.
G04 P10
G01 X15.22 Y3.78 % Horizontal rapid move.
G04 P10
G01 X14.73 Y3.4 % Horizontal rapid move.
G04 P10
G01 X14.22 Y3.07 % Horizontal rapid move.
G04 P10
G01 X13.83 Y2.84 % Horizontal rapid move.
G04 P10
G01 Y17.16 % Horizontal rapid move.
G04 P10
G01 X13.71 Y17.23 % Horizontal rapid move.
G04 P10
G01 X13.15 Y17.48 % Horizontal rapid move.
G04 P10
G01 X12.58 Y17.7 % Horizontal rapid move.
G04 P10
G01 X11.99 Y17.87 % Horizontal rapid move.
G04 P10
G01 X11.83 Y17.91 % Horizontal rapid move.
G04 P10
G01 Y2.1 % Horizontal rapid move.
G04 P10
G01 X11.36 Y2.0 % Horizontal rapid move.
G04 P10
G01 X10.76 Y1.92 % Horizontal rapid move.
G04 P10
G01 X10.14 Y1.88 % Horizontal rapid move.
G04 P10
G01 X9.83 Y1.89 % Horizontal rapid move.
G04 P10
G01 Y18.11 % Horizontal rapid move.
G04 P10
G01 X9.55 % Horizontal rapid move.
G04 P10
G01 X8.94 Y18.05 % Horizontal rapid move.
G04 P10
G01 X8.33 Y17.94 % Horizontal rapid move.
G04 P10
G01 X7.83 Y17.82 % Horizontal rapid move.
G04 P10
G01 Y2.17 % Horizontal rapid move.
G04 P10
G01 X7.71 Y2.2 % Horizontal rapid move.
G04 P10
G01 X7.13 Y2.4 % Horizontal rapid move.
G04 P10
G01 X6.56 Y2.65 % Horizontal rapid move.
G04 P10
G01 X6.01 Y2.92 % Horizontal rapid move.
G04 P10
G01 X5.83 Y3.03 % Horizontal rapid move.
G04 P10
G01 Y16.96 % Horizontal rapid move.
G04 P10
G01 X5.51 Y16.76 % Horizontal rapid move.
G04 P10
G01 X5.01 Y16.41 % Horizontal rapid move.
G04 P10
G01 X4.55 Y16.02 % Horizontal rapid move.
G04 P10
G01 X4.11 Y15.59 % Horizontal rapid move.
G04 P10
G01 X3.83 Y15.28 % Horizontal rapid move.
G04 P10
G01 Y4.73 % Horizontal rapid move.
G04 P10

G01 Z5.44 F2000.0 % Vertical move.
% Starting new layer: 18/31
G00 X7.77 Y2.45 % 3D rapid move.
G01 X7.77 Y2.45 F200 % Horizontal rapid move.
G04 P10
G01 X12.23 % Horizontal rapid move.
G04 P10
G01 X12.49 Y2.52 % Horizontal rapid move.
G04 P10
G01 X13.05 Y2.73 % Horizontal rapid move.
G04 P10
G01 X13.85 Y3.12 % Horizontal rapid move.
G04 P10
G01 X14.36 Y3.43 % Horizontal rapid move.
G04 P10
G01 X14.85 Y3.79 % Horizontal rapid move.
G04 P10
G01 X15.08 Y3.96 % Horizontal rapid move.
G04 P10
G01 X15.59 Y4.45 % Horizontal rapid move.
G04 P10
G01 X4.41 % Horizontal rapid move.
G04 P10
G01 X4.27 Y4.58 % Horizontal rapid move.
G04 P10
G01 X3.69 Y5.27 % Horizontal rapid move.
G04 P10
G01 X3.2 Y6.02 % Horizontal rapid move.
G04 P10
G01 X2.97 Y6.45 % Horizontal rapid move.
G04 P10
G01 X17.03 % Horizontal rapid move.
G04 P10
G01 X17.08 Y6.54 % Horizontal rapid move.
G04 P10
G01 X17.32 Y7.09 % Horizontal rapid move.
G04 P10
G01 X17.61 Y7.94 % Horizontal rapid move.
G04 P10
G01 X17.72 Y8.45 % Horizontal rapid move.
G04 P10
G01 X2.28 % Horizontal rapid move.
G04 P10
G01 X2.17 Y9.11 % Horizontal rapid move.
G04 P10
G01 X2.11 Y10.0 % Horizontal rapid move.
G04 P10
G01 X2.13 Y10.45 % Horizontal rapid move.
G04 P10
G01 X17.86 % Horizontal rapid move.
G04 P10
G01 Y10.59 % Horizontal rapid move.
G04 P10
G01 X17.74 Y11.48 % Horizontal rapid move.
G04 P10
G01 X17.62 Y12.06 % Horizontal rapid move.
G04 P10
G01 X17.48 Y12.45 % Horizontal rapid move.
G04 P10
G01 X2.52 % Horizontal rapid move.
G04 P10
G01 X2.67 Y12.92 % Horizontal rapid move.
G04 P10
G01 X2.91 Y13.46 % Horizontal rapid move.
G04 P10
G01 X3.36 Y14.24 % Horizontal rapid move.
G04 P10
G01 X3.5 Y14.45 % Horizontal rapid move.
G04 P10
G01 X16.5 % Horizontal rapid move.
G04 P10
G01 X16.12 Y14.97 % Horizontal rapid move.
G04 P10
G01 X15.52 Y15.63 % Horizontal rapid move.
G04 P10
G01 X15.08 Y16.03 % Horizontal rapid move.
G04 P10
G01 X14.52 Y16.45 % Horizontal rapid move.
G04 P10
G01 X5.49 % Horizontal rapid move.
G04 P10

G01 Z5.76 F2000.0 % Vertical move.
% Starting new layer: 19/31
G00 X17.26 Y7.61 % 3D rapid move.
G01 X17.26 Y7.61 F200 % Horizontal rapid move.
G04 P10
G01 Y12.38 % Horizontal rapid move.
G04 P10
G01 X17.2 Y12.58 % Horizontal rapid move.
G04 P10
G01 X16.98 Y13.12 % Horizontal rapid move.
G04 P10
G01 X16.73 Y13.63 % Horizontal rapid move.
G04 P10
G01 X16.43 Y14.13 % Horizontal rapid move.
G04 P10
G01 X16.1 Y14.61 % Horizontal rapid move.
G04 P10
G01 X15.74 Y15.05 % Horizontal rapid move.
G04 P10
G01 X15.34 Y15.47 % Horizontal rapid move.
G04 P10
G01 X15.26 Y15.54 % Horizontal rapid move.
G04 P10
G01 Y4.45 % Horizontal rapid move.
G04 P10
G01 X14.94 Y4.16 % Horizontal rapid move.
G04 P10
G01 X14.49 Y3.81 % Horizontal rapid move.
G04 P10
G01 X14.01 Y3.49 % Horizontal rapid move.
G04 P10
G01 X13.5 Y3.2 % Horizontal rapid move.
G04 P10
G01 X13.26 Y3.09 % Horizontal rapid move.
G04 P10
G01 Y16.91 % Horizontal rapid move.
G04 P10
G01 X12.93 Y17.06 % Horizontal rapid move.
G04 P10
G01 X12.39 Y17.26 % Horizontal rapid move.
G04 P10
G01 X11.83 Y17.42 % Horizontal rapid move.
G04 P10
G01 X11.28 Y17.54 % Horizontal rapid move.
G04 P10
G01 X11.26 % Horizontal rapid move.
G04 P10
G01 Y2.46 % Horizontal rapid move.
G04 P10
G01 X10.75 Y2.39 % Horizontal rapid move.
G04 P10
G01 X10.17 Y2.36 % Horizontal rapid move.
G04 P10
G01 X9.59 Y2.37 % Horizontal rapid move.
G04 P10
G01 X9.26 Y2.4 % Horizontal rapid move.
G04 P10
G01 Y17.6 % Horizontal rapid move.
G04 P10
G01 X8.97 Y17.57 % Horizontal rapid move.
G04 P10
G01 X8.39 Y17.47 % Horizontal rapid move.
G04 P10
G01 X7.83 Y17.34 % Horizontal rapid move.
G04 P10
G01 X7.26 Y17.12 % Horizontal rapid move.
G04 P10
G01 Y2.86 % Horizontal rapid move.
G04 P10
G01 X6.8 Y3.06 % Horizontal rapid move.
G04 P10
G01 X6.28 Y3.32 % Horizontal rapid move.
G04 P10
G01 X5.78 Y3.62 % Horizontal rapid move.
G04 P10
G01 X5.31 Y3.96 % Horizontal rapid move.
G04 P10
G01 X5.26 Y4.0 % Horizontal rapid move.
G04 P10
G01 Y15.99 % Horizontal rapid move.
G04 P10
G01 X4.84 Y15.64 % Horizontal rapid move.
G04 P10
G01 X4.43 Y15.24 % Horizontal rapid move.
G04 P10
G01 X4.05 Y14.8 % Horizontal rapid move.
G04 P10
G01 X3.7 Y14.33 % Horizontal rapid move.
G04 P10
G01 X3.39 Y13.84 % Horizontal rapid move.
G04 P10
G01 X3.26 Y13.61 % Horizontal rapid move.
G04 P10
G01 Y6.41 % Horizontal rapid move.
G04 P10

G01 Z6.08 F2000.0 % Vertical move.
% Starting new layer: 20/31
G00 X7.53 Y3.07 % 3D rapid move.
G01 X7.53 Y3.07 F200 % Horizontal rapid move.
G04 P10
G01 X12.5 % Horizontal rapid move.
G04 P10
G01 X12.85 Y3.2 % Horizontal rapid move.
G04 P10
G01 X13.36 Y3.43 % Horizontal rapid move.
G04 P10
G01 X14.13 Y3.89 % Horizontal rapid move.
G04 P10
G01 X14.75 Y4.37 % Horizontal rapid move.
G04 P10
G01 X15.16 Y4.74 % Horizontal rapid move.
G04 P10
G01 X15.45 Y5.07 % Horizontal rapid move.
G04 P10
G01 X6.29 % Horizontal rapid move.
G04 P10
G01 X4.52 % Horizontal rapid move.
G04 P10
G01 X4.28 Y5.35 % Horizontal rapid move.
G04 P10
G01 X3.82 Y5.99 % Horizontal rapid move.
G04 P10
G01 X3.37 Y6.77 % Horizontal rapid move.
G04 P10
G01 X3.25 Y7.07 % Horizontal rapid move.
G04 P10
G01 X16.76 % Horizontal rapid move.
G04 P10
G01 X16.95 Y7.54 % Horizontal rapid move.
G04 P10
G01 X17.12 Y8.07 % Horizontal rapid move.
G04 P10
G01 X17.24 Y8.62 % Horizontal rapid move.
G04 P10
G01 X17.3 Y9.07 % Horizontal rapid move.
G04 P10
G01 X2.69 % Horizontal rapid move.
G04 P10
G01 X2.64 Y9.67 % Horizontal rapid move.
G04 P10
G01 X2.65 Y10.56 % Horizontal rapid move.
G04 P10
G01 X2.7 Y11.07 % Horizontal rapid move.
G04 P10
G01 X17.28 % Horizontal rapid move.
G04 P10
G01 X17.27 Y11.17 % Horizontal rapid move.
G04 P10
G01 X17.11 Y11.93 % Horizontal rapid move.
G04 P10
G01 X16.95 Y12.46 % Horizontal rapid move.
G04 P10
G01 X16.74 Y12.98 % Horizontal rapid move.
G04 P10
G01 X16.7 Y13.07 % Horizontal rapid move.
G04 P10
G01 X3.3 % Horizontal rapid move.
G04 P10
G01 X3.37 Y13.23 % Horizontal rapid move.
G04 P10
G01 X3.76 Y13.92 % Horizontal rapid move.
G04 P10
G01 X4.28 Y14.65 % Horizontal rapid move.
G04 P10
G01 X4.64 Y15.07 % Horizontal rapid move.
G04 P10
G01 X15.35 % Horizontal rapid move.
G04 P10
G01 X15.16 Y15.26 % Horizontal rapid move.
G04 P10
G01 X14.75 Y15.63 % Horizontal rapid move.
G04 P10
G01 X14.04 Y16.16 % Horizontal rapid move.
G04 P10
G01 X13.36 Y16.57 % Horizontal rapid move.
G04 P10
G01 X12.85 Y16.8 % Horizontal rapid move.
G04 P10
G01 X12.34 Y17.0 % Horizontal rapid move.
G04 P10
G01 X12.06 Y17.07 % Horizontal rapid move.
G04 P10
G01 X7.94 % Horizontal rapid move.
G04 P10

G01 Z6.4 F2000.0 % Vertical move.
% Starting new layer: 21/31
G00 X16.58 Y7.41 % 3D rapid move.
G01 X16.58 Y7.41 F200 % Horizontal rapid move.
G04 P10
G01 Y12.58 % Horizontal rapid move.
G04 P10
G01 X16.24 Y13.35 % Horizontal rapid move.
G04 P10
G01 X15.91 Y13.89 % Horizontal rapid move.
G04 P10
G01 X15.61 Y14.32 % Horizontal rapid move.
G04 P10
G01 X14.96 Y15.05 % Horizontal rapid move.
G04 P10
G01 X14.58 Y15.39 % Horizontal rapid move.
G04 P10
G01 Y4.61 % Horizontal rapid move.
G04 P10
G01 X14.21 Y4.31 % Horizontal rapid move.
G04 P10
G01 X13.77 Y4.01 % Horizontal rapid move.
G04 P10
G01 X13.31 Y3.74 % Horizontal rapid move.
G04 P10
G01 X12.83 Y3.51 % Horizontal rapid move.
G04 P10
G01 X12.58 Y3.41 % Horizontal rapid move.
G04 P10
G01 Y16.59 % Horizontal rapid move.
G04 P10
G01 X12.16 Y16.75 % Horizontal rapid move.
G04 P10
G01 X11.2 Y16.98 % Horizontal rapid move.
G04 P10
G01 X10.58 Y17.06 % Horizontal rapid move.
G04 P10
G01 Y2.96 % Horizontal rapid move.
G04 P10
G01 X10.22 Y2.92 % Horizontal rapid move.
G04 P10
G01 X9.7 Y2.93 % Horizontal rapid move.
G04 P10
G01 X9.16 Y2.97 % Horizontal rapid move.
G04 P10
G01 X8.63 Y3.06 % Horizontal rapid move.
G04 P10
G01 X8.58 Y3.07 % Horizontal rapid move.
G04 P10
G01 Y16.93 % Horizontal rapid move.
G04 P10
G01 X8.44 Y16.9 % Horizontal rapid move.
G04 P10
G01 X7.92 Y16.77 % Horizontal rapid move.
G04 P10
G01 X7.43 Y16.59 % Horizontal rapid move.
G04 P10
G01 X6.93 Y16.37 % Horizontal rapid move.
G04 P10
G01 X6.58 Y16.2 % Horizontal rapid move.
G04 P10
G01 Y3.8 % Horizontal rapid move.
G04 P10
G01 X6.53 Y3.82 % Horizontal rapid move.
G04 P10
G01 X5.72 Y4.36 % Horizontal rapid move.
G04 P10
G01 X5.31 Y4.7 % Horizontal rapid move.
G04 P10
G01 X4.92 Y5.07 % Horizontal rapid move.
G04 P10
G01 X4.58 Y5.45 % Horizontal rapid move.
G04 P10
G01 Y14.55 % Horizontal rapid move.
G04 P10

G01 Z6.72 F2000.0 % Vertical move.
% Starting new layer: 22/31
G00 X7.32 Y3.8 % 3D rapid move.
G01 X7.32 Y3.8 F200 % Horizontal rapid move.
G04 P10
G01 X12.7 % Horizontal rapid move.
G04 P10
G01 X13.08 Y3.98 % Horizontal rapid move.
G04 P10
G01 X13.53 Y4.23 % Horizontal rapid move.
G04 P10
G01 X13.95 Y4.51 % Horizontal rapid move.
G04 P10
G01 X14.35 Y4.82 % Horizontal rapid move.
G04 P10
G01 X15.01 Y5.46 % Horizontal rapid move.
G04 P10
G01 X15.3 Y5.8 % Horizontal rapid move.
G04 P10
G01 X4.7 % Horizontal rapid move.
G04 P10
G01 X4.44 Y6.15 % Horizontal rapid move.
G04 P10
G01 X4.17 Y6.59 % Horizontal rapid move.
G04 P10
G01 X3.88 Y7.13 % Horizontal rapid move.
G04 P10
G01 X3.61 Y7.8 % Horizontal rapid move.
G04 P10
G01 X16.4 % Horizontal rapid move.
G04 P10
G01 X16.53 Y8.23 % Horizontal rapid move.
G04 P10
G01 X16.64 Y8.73 % Horizontal rapid move.
G04 P10
G01 X16.72 Y9.24 % Horizontal rapid move.
G04 P10
G01 X16.76 Y9.75 % Horizontal rapid move.
G04 P10
G01 Y9.8 % Horizontal rapid move.
G04 P10
G01 X3.25 % Horizontal rapid move.
G04 P10
G01 X3.24 Y10.0 % Horizontal rapid move.
G04 P10
G01 X3.26 Y10.51 % Horizontal rapid move.
G04 P10
G01 X3.34 Y11.13 % Horizontal rapid move.
G04 P10
G01 X3.49 Y11.8 % Horizontal rapid move.
G04 P10
G01 X16.52 % Horizontal rapid move.
G04 P10
G01 X16.38 Y12.26 % Horizontal rapid move.
G04 P10
G01 X16.18 Y12.74 % Horizontal rapid move.
G04 P10
G01 X15.76 Y13.54 % Horizontal rapid move.
G04 P10
G01 X15.58 Y13.8 % Horizontal rapid move.
G04 P10
G01 X4.43 % Horizontal rapid move.
G04 P10
G01 X4.75 Y14.26 % Horizontal rapid move.
G04 P10
G01 X5.09 Y14.65 % Horizontal rapid move.
G04 P10
G01 X5.54 Y15.08 % Horizontal rapid move.
G04 P10
G01 X6.26 Y15.64 % Horizontal rapid move.
G04 P10
G01 X6.53 Y15.8 % Horizontal rapid move.
G04 P10
G01 X13.47 % Horizontal rapid move.
G04 P10

G01 Z7.04 F2000.0 % Vertical move.
% Starting new layer: 23/31
G00 X15.76 Y7.21 % 3D rapid move.
G01 X15.76 Y7.21 F200 % Horizontal rapid move.
G04 P10
G01 Y12.78 % Horizontal rapid move.
G04 P10
G01 X15.65 Y13.03 % Horizontal rapid move.
G04 P10
G01 X15.4 Y13.45 % Horizontal rapid move.
G04 P10
G01 X15.0 Y14.0 % Horizontal rapid move.
G04 P10
G01 X14.69 Y14.37 % Horizontal rapid move.
G04 P10
G01 X14.13 Y14.9 % Horizontal rapid move.
G04 P10
G01 X13.76 Y15.17 % Horizontal rapid move.
G04 P10
G01 Y4.83 % Horizontal rapid move.
G04 P10
G01 X13.51 Y4.64 % Horizontal rapid move.
G04 P10
G01 X13.1 Y4.39 % Horizontal rapid move.
G04 P10
G01 X12.48 Y4.09 % Horizontal rapid move.
G04 P10
G01 X11.76 Y3.85 % Horizontal rapid move.
G04 P10
G01 Y16.15 % Horizontal rapid move.
G04 P10
G01 X11.56 Y16.21 % Horizontal rapid move.
G04 P10
G01 X10.6 Y16.38 % Horizontal rapid move.
G04 P10
G01 X10.12 Y16.41 % Horizontal rapid move.
G04 P10
G01 X9.76 Y16.38 % Horizontal rapid move.
G04 P10
G01 Y3.6 % Horizontal rapid move.
G04 P10
G01 X9.64 % Horizontal rapid move.
G04 P10
G01 X8.86 Y3.7 % Horizontal rapid move.
G04 P10
G01 X8.4 Y3.8 % Horizontal rapid move.
G04 P10
G01 X7.93 Y3.94 % Horizontal rapid move.
G04 P10
G01 X7.76 Y4.01 % Horizontal rapid move.
G04 P10
G01 Y15.99 % Horizontal rapid move.
G04 P10
G01 X7.56 Y15.92 % Horizontal rapid move.
G04 P10
G01 X7.29 Y15.81 % Horizontal rapid move.
G04 P10
G01 X6.7 Y15.48 % Horizontal rapid move.
G04 P10
G01 X6.29 Y15.22 % Horizontal rapid move.
G04 P10
G01 X5.76 Y14.79 % Horizontal rapid move.
G04 P10
G01 Y5.21 % Horizontal rapid move.
G04 P10
G01 X5.49 Y5.46 % Horizontal rapid move.
G04 P10
G01 X5.03 Y5.96 % Horizontal rapid move.
G04 P10
G01 X4.58 Y6.59 % Horizontal rapid move.
G04 P10
G01 X4.25 Y7.19 % Horizontal rapid move.
G04 P10
G01 X3.95 Y7.9 % Horizontal rapid move.
G04 P10
G01 X3.76 Y8.54 % Horizontal rapid move.
G04 P10
G01 Y11.42 % Horizontal rapid move.
G04 P10

G01 Z7.36 F2000.0 % Vertical move.
% Starting new layer: 24/31
G00 X7.15 Y4.69 % 3D rapid move.
G01 X7.15 Y4.69 F200 % Horizontal rapid move.
G04 P10
G01 X12.84 % Horizontal rapid move.
G04 P10
G01 X13.18 Y4.88 % Horizontal rapid move.
G04 P10
G01 X13.55 Y5.13 % Horizontal rapid move.
G04 P10
G01 X13.91 Y5.41 % Horizontal rapid move.
G04 P10
G01 X14.24 Y5.73 % Horizontal rapid move.
G04 P10
G01 X14.56 Y6.06 % Horizontal rapid move.
G04 P10
G01 X14.85 Y6.42 % Horizontal rapid move.
G04 P10
G01 X15.02 Y6.69 % Horizontal rapid move.
G04 P10
G01 X4.97 % Horizontal rapid move.
G04 P10
G01 X4.82 Y6.92 % Horizontal rapid move.
G04 P10
G01 X4.6 Y7.32 % Horizontal rapid move.
G04 P10
G01 X4.42 Y7.74 % Horizontal rapid move.
G04 P10
G01 X4.26 Y8.17 % Horizontal rapid move.
G04 P10
G01 X4.14 Y8.61 % Horizontal rapid move.
G04 P10
G01 X4.12 Y8.69 % Horizontal rapid move.
G04 P10
G01 X15.87 % Horizontal rapid move.
G04 P10
G01 X15.92 Y8.87 % Horizontal rapid move.
G04 P10
G01 X15.99 Y9.36 % Horizontal rapid move.
G04 P10
G01 X16.02 Y9.81 % Horizontal rapid move.
G04 P10
G01 Y10.26 % Horizontal rapid move.
G04 P10
G01 X15.98 Y10.69 % Horizontal rapid move.
G04 P10
G01 X4.02 % Horizontal rapid move.
G04 P10
G01 X4.04 Y10.87 % Horizontal rapid move.
G04 P10
G01 X4.12 Y11.32 % Horizontal rapid move.
G04 P10
G01 X4.24 Y11.79 % Horizontal rapid move.
G04 P10
G01 X4.57 Y12.61 % Horizontal rapid move.
G04 P10
G01 X4.61 Y12.69 % Horizontal rapid move.
G04 P10
G01 X15.39 % Horizontal rapid move.
G04 P10
G01 X15.32 Y12.85 % Horizontal rapid move.
G04 P10
G01 X15.06 Y13.28 % Horizontal rapid move.
G04 P10
G01 X14.8 Y13.65 % Horizontal rapid move.
G04 P10
G01 X14.51 Y14.0 % Horizontal rapid move.
G04 P10
G01 X14.2 Y14.33 % Horizontal rapid move.
G04 P10
G01 X13.86 Y14.63 % Horizontal rapid move.
G04 P10
G01 X13.78 Y14.69 % Horizontal rapid move.
G04 P10
G01 X6.21 % Horizontal rapid move.
G04 P10

G01 Z7.68 F2000.0 % Vertical move.
% Starting new layer: 25/31
G00 X14.78 Y7.12 % 3D rapid move.
G01 X14.78 Y7.12 F200 % Horizontal rapid move.
G04 P10
G01 Y12.88 % Horizontal rapid move.
G04 P10
G01 X14.48 Y13.36 % Horizontal rapid move.
G04 P10
G01 X13.97 Y13.93 % Horizontal rapid move.
G04 P10
G01 X13.34 Y14.49 % Horizontal rapid move.
G04 P10
G01 X12.92 Y14.77 % Horizontal rapid move.
G04 P10
G01 X12.78 Y14.84 % Horizontal rapid move.
G04 P10
G01 Y5.16 % Horizontal rapid move.
G04 P10
G01 X12.16 Y4.84 % Horizontal rapid move.
G04 P10
G01 X11.77 Y4.69 % Horizontal rapid move.
G04 P10
G01 X11.37 Y4.58 % Horizontal rapid move.
G04 P10
G01 X10.78 Y4.47 % Horizontal rapid move.
G04 P10
G01 Y15.53 % Horizontal rapid move.
G04 P10
G01 X10.61 Y15.56 % Horizontal rapid move.
G04 P10
G01 X10.11 Y15.59 % Horizontal rapid move.
G04 P10
G01 X9.68 % Horizontal rapid move.
G04 P10
G01 X8.84 Y15.47 % Horizontal rapid move.
G04 P10
G01 X8.78 Y15.46 % Horizontal rapid move.
G04 P10
G01 Y4.54 % Horizontal rapid move.
G04 P10
G01 X8.03 Y4.76 % Horizontal rapid move.
G04 P10
G01 X7.64 Y4.93 % Horizontal rapid move.
G04 P10
G01 X7.26 Y5.12 % Horizontal rapid move.
G04 P10
G01 X6.91 Y5.34 % Horizontal rapid move.
G04 P10
G01 X6.78 Y5.44 % Horizontal rapid move.
G04 P10
G01 Y14.56 % Horizontal rapid move.
G04 P10
G01 X6.23 Y14.14 % Horizontal rapid move.
G04 P10
G01 X5.93 Y13.85 % Horizontal rapid move.
G04 P10
G01 X5.4 Y13.18 % Horizontal rapid move.
G04 P10
G01 X5.17 Y12.83 % Horizontal rapid move.
G04 P10
G01 X4.8 Y12.06 % Horizontal rapid move.
G04 P10
G01 X4.78 Y12.0 % Horizontal rapid move.
G04 P10
G01 Y7.99 % Horizontal rapid move.
G04 P10

G01 Z8.0 F2000.0 % Vertical move.
% Starting new layer: 26/31
G00 X7.08 Y5.81 % 3D rapid move.
G01 X7.08 Y5.81 F200 % Horizontal rapid move.
G04 P10
G01 X12.91 % Horizontal rapid move.
G04 P10
G01 X12.98 Y5.86 % Horizontal rapid move.
G04 P10
G01 X13.29 Y6.09 % Horizontal rapid move.
G04 P10
G01 X13.84 Y6.64 % Horizontal rapid move.
G04 P10
G01 X14.21 Y7.12 % Horizontal rapid move.
G04 P10
G01 X14.5 Y7.59 % Horizontal rapid move.
G04 P10
G01 X14.61 Y7.81 % Horizontal rapid move.
G04 P10
G01 X5.39 % Horizontal rapid move.
G04 P10
G01 X5.12 Y8.48 % Horizontal rapid move.
G04 P10
G01 X5.03 Y8.85 % Horizontal rapid move.
G04 P10
G01 X4.91 Y9.61 % Horizontal rapid move.
G04 P10
G01 Y9.81 % Horizontal rapid move.
G04 P10
G01 X15.09 % Horizontal rapid move.
G04 P10
G01 X15.1 Y10.2 % Horizontal rapid move.
G04 P10
G01 X15.04 Y10.8 % Horizontal rapid move.
G04 P10
G01 X14.93 Y11.34 % Horizontal rapid move.
G04 P10
G01 X14.76 Y11.81 % Horizontal rapid move.
G04 P10
G01 X5.24 % Horizontal rapid move.
G04 P10
G01 X5.42 Y12.24 % Horizontal rapid move.
G04 P10
G01 X5.69 Y12.72 % Horizontal rapid move.
G04 P10
G01 X6.04 Y13.22 % Horizontal rapid move.
G04 P10
G01 X6.56 Y13.78 % Horizontal rapid move.
G04 P10
G01 X6.61 Y13.81 % Horizontal rapid move.
G04 P10
G01 X13.38 % Horizontal rapid move.
G04 P10

G01 Z8.32 F2000.0 % Vertical move.
% Starting new layer: 27/31
G00 X13.51 Y7.13 % 3D rapid move.
G01 X13.51 Y7.13 F200 % Horizontal rapid move.
G04 P10
G01 Y12.87 % Horizontal rapid move.
G04 P10
G01 X13.08 Y13.34 % Horizontal rapid move.
G04 P10
G01 X12.66 Y13.69 % Horizontal rapid move.
G04 P10
G01 X12.25 Y13.95 % Horizontal rapid move.
G04 P10
G01 X11.62 Y14.24 % Horizontal rapid move.
G04 P10
G01 X11.51 Y14.28 % Horizontal rapid move.
G04 P10
G01 Y5.71 % Horizontal rapid move.
G04 P10
G01 X11.44 Y5.68 % Horizontal rapid move.
G04 P10
G01 X10.77 Y5.52 % Horizontal rapid move.
G04 P10
G01 X10.23 Y5.46 % Horizontal rapid move.
G04 P10
G01 X9.74 % Horizontal rapid move.
G04 P10
G01 X9.51 Y5.49 % Horizontal rapid move.
G04 P10
G01 Y14.52 % Horizontal rapid move.
G04 P10
G01 X9.4 Y14.51 % Horizontal rapid move.
G04 P10
G01 X8.72 Y14.37 % Horizontal rapid move.
G04 P10
G01 X8.08 Y14.12 % Horizontal rapid move.
G04 P10
G01 X7.65 Y13.89 % Horizontal rapid move.
G04 P10
G01 X7.51 Y13.79 % Horizontal rapid move.
G04 P10
G01 Y6.2 % Horizontal rapid move.
G04 P10
G01 X7.48 Y6.21 % Horizontal rapid move.
G04 P10
G01 X6.94 Y6.63 % Horizontal rapid move.
G04 P10
G01 X6.47 Y7.13 % Horizontal rapid move.
G04 P10
G01 X6.08 Y7.71 % Horizontal rapid move.
G04 P10
G01 X5.77 Y8.32 % Horizontal rapid move.
G04 P10
G01 X5.57 Y8.97 % Horizontal rapid move.
G04 P10
G01 X5.51 Y9.37 % Horizontal rapid move.
G04 P10
G01 Y10.64 % Horizontal rapid move.
G04 P10

G01 Z8.64 F2000.0 % Vertical move.
% Starting new layer: 28/31
G00 X7.24 Y7.28 % 3D rapid move.
G01 X7.24 Y7.28 F200 % Horizontal rapid move.
G04 P10
G01 X12.77 % Horizontal rapid move.
G04 P10
G01 X12.8 Y7.31 % Horizontal rapid move.
G04 P10
G01 X13.11 Y7.67 % Horizontal rapid move.
G04 P10
G01 X13.34 Y8.01 % Horizontal rapid move.
G04 P10
G01 X13.6 Y8.54 % Horizontal rapid move.
G04 P10
G01 X13.78 Y9.09 % Horizontal rapid move.
G04 P10
G01 X13.81 Y9.28 % Horizontal rapid move.
G04 P10
G01 X6.18 % Horizontal rapid move.
G04 P10
G01 X6.12 Y9.7 % Horizontal rapid move.
G04 P10
G01 Y10.3 % Horizontal rapid move.
G04 P10
G01 X6.21 Y10.88 % Horizontal rapid move.
G04 P10
G01 X6.34 Y11.28 % Horizontal rapid move.
G04 P10
G01 X13.67 % Horizontal rapid move.
G04 P10
G01 Y11.3 % Horizontal rapid move.
G04 P10
G01 X13.43 Y11.84 % Horizontal rapid move.
G04 P10
G01 X13.22 Y12.18 % Horizontal rapid move.
G04 P10
G01 X12.85 Y12.65 % Horizontal rapid move.
G04 P10
G01 X12.42 Y13.04 % Horizontal rapid move.
G04 P10
G01 X12.08 Y13.28 % Horizontal rapid move.
G04 P10
G01 X7.93 % Horizontal rapid move.
G04 P10

G01 Z8.96 F2000.0 % Vertical move.
% Starting new layer: 29/31
G00 X11.73 Y7.48 % 3D rapid move.
G01 X11.73 Y7.48 F200 % Horizontal rapid move.
G04 P10
G01 Y12.53 % Horizontal rapid move.
G04 P10
G01 X11.4 Y12.74 % Horizontal rapid move.
G04 P10
G01 X10.98 Y12.92 % Horizontal rapid move.
G04 P10
G01 X10.29 Y13.06 % Horizontal rapid move.
G04 P10
G01 X9.73 Y13.02 % Horizontal rapid move.
G04 P10
G01 Y6.94 % Horizontal rapid move.
G04 P10
G01 X9.36 Y7.0 % Horizontal rapid move.
G04 P10
G01 X9.05 Y7.08 % Horizontal rapid move.
G04 P10
G01 X8.49 Y7.32 % Horizontal rapid move.
G04 P10
G01 X8.11 Y7.58 % Horizontal rapid move.
G04 P10
G01 X7.77 Y7.89 % Horizontal rapid move.
G04 P10
G01 X7.73 Y7.94 % Horizontal rapid move.
G04 P10
G01 Y12.04 % Horizontal rapid move.
G04 P10

G01 Z9.28 F2000.0 % Vertical move.
% Starting new layer: 30/31
G00 X8.12 Y9.67 % 3D rapid move.
G01 X8.12 Y9.67 F200 % Horizontal rapid move.
G04 P10
G01 X11.88 % Horizontal rapid move.
G04 P10
G01 X11.9 Y9.89 % Horizontal rapid move.
G04 P10
G01 X11.91 Y10.09 % Horizontal rapid move.
G04 P10
G01 X11.87 Y10.38 % Horizontal rapid move.
G04 P10
G01 X11.74 Y10.8 % Horizontal rapid move.
G04 P10
G01 X11.53 Y11.15 % Horizontal rapid move.
G04 P10
G01 X11.23 Y11.46 % Horizontal rapid move.
G04 P10
G01 X10.92 Y11.67 % Horizontal rapid move.
G04 P10
G01 X9.1 % Horizontal rapid move.
G04 P10

G01 Z9.6 F2000.0 % Vertical move.
% Starting new layer: 31/31

% Tidying up.
G01 Z19.6 F2000.0 % Vertical move.

% End of toolpath.
